src/img/services-exterior.svg

<svg width="38" height="38" viewBox="0 0 38 38" fill="none" xmlns="http://www.w3.org/2000/svg">
<path d="M33.4516 31.9032H32.9355V25.7097H32.1112C33.2343 24.456 35 22.009 35 19C35 14.663 30.8415 11.4939 30.6645 11.3613L30.2939 11.0831L28.9272 12.5474C29.6565 9.48929 29.4315 6.26865 28.2537 3.32413L28.1236 3H27.2581L27.1094 3.02168C24.905 3.68284 23.0083 5.06813 21.6906 6.94529C21.4067 6.64284 21.1156 6.3471 20.808 6.06529L20.2449 5.54916C19.5631 4.92413 18.4359 4.92413 17.7541 5.54916L17.191 6.06529C16.8834 6.3471 16.5923 6.64335 16.3084 6.94529C14.9912 5.06865 13.0939 3.68335 10.8895 3.02168L9.87639 3L9.74684 3.32465C8.56903 6.26865 8.344 9.48929 9.07329 12.5479L7.70658 11.0836L7.33548 11.3613C7.15845 11.4939 3 14.663 3 19C3 22.009 4.76568 24.456 5.88877 25.7097H5.06452V31.9032H4.54839C3.69471 31.9032 3 32.5979 3 33.4516V35H35V33.4516C35 32.5979 34.3053 31.9032 33.4516 31.9032ZM30.4008 12.4813C31.367 13.3231 33.9677 15.8769 33.9677 19C33.9677 22.4018 31.2983 25.1177 30.6702 25.7097H24.8369L25.6369 22.776C26.0276 21.3443 26.2258 19.8655 26.2258 18.3801C26.2258 17.9244 26.2015 17.4717 26.1644 17.0206L30.4008 12.4813ZM27.335 4.03226H27.4201C28.583 7.15897 28.6145 10.5948 27.5022 13.7474L27.3169 14.2728L26.0028 15.6803C25.5234 12.7683 24.2759 10.0245 22.3961 7.74477C23.5698 5.97342 25.304 4.65987 27.335 4.03226ZM17.8893 6.82606L18.4524 6.30994C18.7523 6.03484 19.2483 6.03484 19.5481 6.30994L20.1112 6.82606C23.3412 9.78658 25.1935 13.9987 25.1935 18.3801C25.1935 19.7737 25.0077 21.1615 24.6413 22.5045L23.767 25.7097H22.697L23.6452 22.233C23.9874 20.9783 24.1613 19.6823 24.1613 18.3801C24.1613 14.2872 22.4307 10.3533 19.4129 7.58632L19 7.20903L18.5866 7.58632C15.5693 10.3533 13.8387 14.2872 13.8387 18.3801C13.8387 19.6818 14.0121 20.9783 14.3548 22.2325L15.303 25.7097H14.233L13.3592 22.504C12.9928 21.161 12.807 19.7737 12.807 18.3801C12.8065 13.9987 14.6588 9.78658 17.8893 6.82606ZM19.7298 23.129L21.5806 21.2782L22.567 22.2645L21.7737 25.1729L19.7298 23.129ZM14.8921 17.6441L16.4194 16.1169L18.2702 17.9677L16.4194 19.8186L14.8735 18.2728C14.8756 18.0627 14.8808 17.8532 14.8921 17.6441ZM23.1264 18.2728L21.5806 19.8186L19.7298 17.9677L21.5806 16.1169L23.1079 17.6441C23.1192 17.8532 23.1244 18.0627 23.1264 18.2728ZM19 17.2379L17.1492 15.3871L19 13.5363L20.8508 15.3871L19 17.2379ZM19 18.6975L20.8508 20.5484L19 22.3992L17.1492 20.5484L19 18.6975ZM22.8555 21.0934L22.3105 20.5484L23.0459 19.8129C23.0005 20.2423 22.9417 20.6702 22.8555 21.0934ZM19.7298 12.8065L21.1745 11.3618C22.0281 12.7822 22.6181 14.3512 22.9117 15.9884L19.7298 12.8065ZM19 12.0766L17.4046 10.4813C17.8774 9.81703 18.4085 9.19045 19 8.616C19.5915 9.19045 20.1221 9.81703 20.5954 10.4813L19 12.0766ZM16.8255 11.3618L18.2702 12.8065L15.0883 15.9884C15.3825 14.3512 15.9719 12.7822 16.8255 11.3618ZM15.6895 20.5484L15.1445 21.0934C15.0583 20.6702 14.9995 20.2423 14.9535 19.8129L15.6895 20.5484ZM16.4194 21.2782L18.2702 23.129L16.2145 25.1848L15.4325 22.2655L16.4194 21.2782ZM19 23.8588L20.8508 25.7097H17.1492L19 23.8588ZM10.4978 13.7474C9.38555 10.5948 9.41703 7.15897 10.5799 4.03226H10.665C12.6955 4.65987 14.4302 5.97342 15.6044 7.74529C13.7246 10.025 12.4766 12.7688 11.9977 15.6808L10.6836 14.2733L10.4978 13.7474ZM4.03226 19C4.03226 15.8769 6.63303 13.3231 7.59923 12.4813L11.8356 17.0201C11.7985 17.4717 11.7742 17.9244 11.7742 18.3801C11.7742 19.8655 11.9724 21.3443 12.3631 22.776L13.1631 25.7097H7.32981C6.70168 25.1177 4.03226 22.4018 4.03226 19ZM6.09677 26.7419H15.4516H22.5484H31.9032V31.9032H29.8387V30.3548C29.8387 28.9319 28.681 27.7742 27.2581 27.7742C25.8351 27.7742 24.6774 28.9319 24.6774 30.3548V31.9032H22.6129V31.3871C22.6129 29.3954 20.9923 27.7742 19 27.7742C17.0077 27.7742 15.3871 29.3954 15.3871 31.3871V31.9032H13.3226V30.3548C13.3226 28.9319 12.1649 27.7742 10.7419 27.7742C9.31897 27.7742 8.16129 28.9319 8.16129 30.3548V31.9032H6.09677V26.7419ZM28.8064 31.9032H25.7097V30.3548C25.7097 29.5012 26.4044 28.8064 27.2581 28.8064C28.1117 28.8064 28.8064 29.5012 28.8064 30.3548V31.9032ZM21.5806 31.9032H16.4194V31.3871C16.4194 29.9641 17.577 28.8064 19 28.8064C20.423 28.8064 21.5806 29.9641 21.5806 31.3871V31.9032ZM12.2903 31.9032H9.19355V30.3548C9.19355 29.5012 9.88826 28.8064 10.7419 28.8064C11.5956 28.8064 12.2903 29.5012 12.2903 30.3548V31.9032ZM33.9677 33.9677H4.03226V33.4516C4.03226 33.1667 4.264 32.9355 4.54839 32.9355H33.4516C33.736 32.9355 33.9677 33.1667 33.9677 33.4516V33.9677Z" fill="white"/>
<path d="M6.49365 23.1323C6.68927 23.4209 6.90449 23.7073 7.13314 23.9845L7.92952 23.3285C7.72101 23.0756 7.52539 22.8144 7.34733 22.5527L6.49365 23.1323Z" fill="white"/>
<path d="M6.09671 19H5.06445C5.06445 19.368 5.10161 19.7458 5.17542 20.1241L6.18858 19.9265C6.12768 19.6137 6.09671 19.3019 6.09671 19Z" fill="white"/>
<path d="M6.44748 20.8384L5.47974 21.1971C5.60258 21.529 5.75432 21.866 5.93083 22.1994L6.84335 21.7163C6.68799 21.4226 6.55483 21.1274 6.44748 20.8384Z" fill="white"/>
<path d="M31.347 21.3333L32.2843 21.7648C32.7168 20.8275 32.9357 19.8969 32.9357 18.9999C32.9357 17.9068 32.5563 16.7697 31.8074 15.6213L30.9424 16.1849C31.5803 17.1625 31.9034 18.1096 31.9034 18.9999C31.9034 19.7467 31.7161 20.5323 31.347 21.3333Z" fill="white"/>
<path d="M31.6453 22.9237L30.7772 22.3643C30.5702 22.6863 30.3364 23.0053 30.0835 23.3124L30.8804 23.9684C31.1591 23.6303 31.4161 23.2788 31.6453 22.9237Z" fill="white"/>
</svg>

<svg width="38" height="38" fill="none" xmlns="http://www.w3.org/2000/svg"><path d="M33.452 31.903h-.517V25.71h-.824C33.234 24.456 35 22.009 35 19c0-4.337-4.159-7.506-4.335-7.639l-.371-.278-1.367 1.464c.73-3.058.505-6.278-.673-9.223L28.124 3h-.866l-.149.022a10.196 10.196 0 0 0-5.418 3.923 16.522 16.522 0 0 0-.883-.88l-.563-.516c-.682-.625-1.81-.625-2.49 0l-.564.516c-.308.282-.599.578-.883.88a10.2 10.2 0 0 0-5.418-3.923L9.876 3l-.13.325a15.28 15.28 0 0 0-.673 9.223l-1.366-1.464-.372.277C7.158 11.494 3 14.663 3 19c0 3.009 1.766 5.456 2.889 6.71h-.824v6.193h-.517A1.55 1.55 0 0 0 3 33.452V35h32v-1.548a1.55 1.55 0 0 0-1.548-1.549ZM30.4 12.481c.966.842 3.567 3.396 3.567 6.519 0 3.402-2.67 6.118-3.298 6.71h-5.833l.8-2.934a16.7 16.7 0 0 0 .589-4.396c0-.456-.024-.908-.062-1.36l4.237-4.539Zm-3.066-8.449h.085a14.255 14.255 0 0 1 .082 9.715l-.185.526-1.314 1.407a16.772 16.772 0 0 0-3.607-7.935 9.17 9.17 0 0 1 4.939-3.713Zm-9.446 2.794.563-.516a.83.83 0 0 1 1.096 0l.563.516a15.712 15.712 0 0 1 5.082 11.554c0 1.394-.185 2.782-.552 4.125l-.874 3.205h-1.07l.948-3.477c.342-1.255.516-2.55.516-3.853a14.68 14.68 0 0 0-4.748-10.794L19 7.21l-.413.377a14.681 14.681 0 0 0-4.748 10.794c0 1.302.173 2.598.516 3.853l.948 3.477h-1.07l-.874-3.206a15.67 15.67 0 0 1-.552-4.124c0-4.381 1.852-8.593 5.082-11.554Zm1.84 16.303 1.852-1.85.986.986-.793 2.908-2.044-2.044Zm-4.837-5.485 1.527-1.527 1.851 1.85-1.85 1.852-1.547-1.546c.003-.21.008-.42.02-.629Zm8.234.629-1.545 1.546-1.851-1.851 1.85-1.851 1.528 1.527c.011.21.016.419.018.629ZM19 17.238l-1.85-1.85L19 13.535l1.85 1.851-1.85 1.85Zm0 1.46 1.85 1.85L19 22.4l-1.85-1.85L19 18.697Zm3.855 2.395-.544-.545.735-.735c-.046.43-.104.857-.19 1.28Zm-3.125-8.287 1.444-1.444a13.67 13.67 0 0 1 1.738 4.626l-3.182-3.181Zm-.73-.73-1.595-1.595A13.543 13.543 0 0 1 19 8.616a13.578 13.578 0 0 1 1.595 1.865L19 12.077Zm-2.174-.714 1.444 1.444-3.182 3.182a13.683 13.683 0 0 1 1.738-4.626Zm-1.136 9.186-.545.545a13.744 13.744 0 0 1-.191-1.28l.736.735Zm.73.73 1.85 1.851-2.055 2.056-.783-2.92.987-.987Zm2.58 2.58 1.85 1.852h-3.7L19 23.859Zm-8.502-10.11a14.255 14.255 0 0 1 .082-9.716h.085a9.174 9.174 0 0 1 4.94 3.713 16.767 16.767 0 0 0-3.607 7.936l-1.314-1.408-.186-.526ZM4.032 19c0-3.123 2.601-5.677 3.567-6.519l4.237 4.54c-.037.45-.062.903-.062 1.36a16.7 16.7 0 0 0 .59 4.395l.8 2.934H7.33c-.628-.592-3.298-3.308-3.298-6.71Zm2.065 7.742h25.806v5.161H29.84v-1.548a2.584 2.584 0 0 0-2.58-2.58 2.584 2.584 0 0 0-2.582 2.58v1.548h-2.064v-.516A3.617 3.617 0 0 0 19 27.774a3.617 3.617 0 0 0-3.613 3.613v.516h-2.064v-1.548a2.584 2.584 0 0 0-2.581-2.58 2.584 2.584 0 0 0-2.58 2.58v1.548H6.096v-5.161Zm22.71 5.161H25.71v-1.548a1.55 1.55 0 0 1 1.548-1.549 1.55 1.55 0 0 1 1.548 1.549v1.548Zm-7.226 0h-5.162v-.516A2.584 2.584 0 0 1 19 28.807a2.584 2.584 0 0 1 2.58 2.58v.516Zm-9.29 0H9.193v-1.548a1.55 1.55 0 0 1 1.548-1.549 1.55 1.55 0 0 1 1.548 1.549v1.548Zm21.677 2.065H4.032v-.516c0-.285.232-.517.516-.517h28.904c.284 0 .516.232.516.517v.516Z" fill="#fff"/><path d="M6.494 23.132c.195.289.41.575.64.852l.796-.656a10.586 10.586 0 0 1-.583-.775l-.853.58ZM6.097 19H5.064c0 .368.038.746.111 1.124l1.014-.197A4.864 4.864 0 0 1 6.097 19Zm.35 1.838-.967.36c.123.331.274.668.45 1.001l.913-.483a7.395 7.395 0 0 1-.396-.878Zm24.9.495.937.432c.433-.938.652-1.868.652-2.765 0-1.093-.38-2.23-1.129-3.379l-.865.564c.638.978.961 1.925.961 2.815 0 .747-.187 1.532-.556 2.333Zm.298 1.591-.868-.56c-.207.322-.44.641-.694.948l.797.656c.28-.338.536-.69.765-1.044Z" fill="#fff"/></svg>
